X:1
T:James Gibb editions
T:Saviour, now the day is ended - Barnby
%%score [ ( 1 2 ) ( 3 4 ) ]
L:1/8
Q:1/4=80
M:4/4
K:D
V:1 treble nm="Midi_74"
V:2 treble 
V:3 bass nm="Midi_74"
V:4 bass 
V:1
"^Lingwood (87. 85. 77)""^Saviour, now the day is ended""^Joseph Barnby\n(1838-96)""^slow" A2 F2 | %1
 A2 G2 F2 E2 | E2 D2 || d2 B2 | A2 F2 G2 A2 | F4 || A2 F2 | A2 G2 F2 E2 | E2 D2 ||[M:4/4] d2 B2 | %10
 A4 ^G4 | F4 || B2 A2 | G2 B2 e2 d2 | c4 || d2 c2 | B2 E2 F2 E2 | D4 || G4 F4 |] %19
V:2
 F2 D2 | F2 E2 D2 C2 | C2 D2 || G2 D2 | D2 D2 D2 E2 | F4 || F2 D2 | F2 E2 D2 C2 | C2 D2 || %9
[M:4/4] F2 F2 | F4 ^E4 | F4 || F2 ^D2 | E2 G2 G2 G2 | G4 || F2 E2 | D2 D2 C2 C2 | D4 || D4 D4 |] %19
V:3
 A,2 D2 | B,2 B,2 A,2 G,2 | G,2 F,2 || B,2 G,2 | F,2 A,2 B,2 C2 | D4 || A,2 =C2 | B,2 B,2 A,2 G,2 | %8
 G,2 F,2 ||[M:4/4] F,2 ^G,2 | A,4 B,4 | A,4 || B,2 B,2 | B,2 B,2 A,2 B,2 | E4 || D2 ^A,2 | %16
 B,2 B,2 A,2 G,2 | F,4 || B,4 A,4 |] %19
V:4
 D,2 D,2 | G,,2 G,,2 A,,2 A,,2 | B,,2 B,,2 || G,,2 G,,2 | A,,2 A,,2 A,,2 A,,2 | D,4 || D,2 D,2- | %7
 G,,2 G,,2 A,,2 A,,2 | B,,2 B,,2 ||[M:4/4] B,,2 D,2 | C,4 C,4 | F,4 || ^D,2 B,,2 | %13
 E,2 D,2 C,2 B,,2 | A,,4 || D,2 F,2 | G,2- G,,2 A,,2 A,,2 | D,4 || G,,4 D,4 |] %19

